X: 2
T: O'Sullivan's Fancy
M: 2/4
L: 1/8
R: polka
K: D Major
B |:\ 
AD FG | AG AB | =c/B/A G>D | FG AF/G/ |
AD FG | AG AB | =c/B/A GE | ED DA/B/ :|
Ad de | fg/f/ ed | cA AB | cd ec |
Ad de | fg/f/ ed | cA GE | ED D2 :|
